; Generated by Kiri:Moto 4.7.1
; Wed Jul 15 2026 09:47:55 GMT+0800 (Central Indonesia Time)
; Bed left:0 right:234 top:234 bottom:0
; Bed type: fixed
; Target: internal
; --- process ---
; firstSliceHeight = 1
; outputBedTemp = 0
; outputFeedrate = 25
; outputRetractDist = 0
; outputSeekrate = 60
; outputTemp = 0
; sliceHeight = 1
; sliceLineWidth = 1.5
; outputVase = true
; --- startup ---
G21 ; millimetres
G90 ; absolute positioning
M83 ; relative extrusion
G28 ; home
G92 E0
G1 E0.0000 F1 ; e-retract 0
;; --- layer 0 (1.000 @ 1) ---
G1 Z1.0000 F3600
; feature brim
G1 X102.7500 Y107.7500
G1 Y126.2500 E11.3265 F1800
G1 X131.2500 E17.4490
G1 Y107.7500 E11.3265
G1 X102.7500 E17.4490
G1 E0.0000 F1 ; e-retract 0
G1 Z1.2000 F3600 ; z-hop start
G1 X104.2500 Y109.2500
G1 Y124.7500 E9.4898 F1800
G1 X129.7500 E15.6122
G1 Y109.2500 E9.4898
G1 X104.2500 E15.6122
G1 E0.0000 F1 ; e-retract 0
; start object id: undefined
; feature shells
G1 X107.7500 Y112.7500 F3600
G1 Y121.2500 E5.2041 F722
G1 X126.2500 E11.3265 F600
G1 Y112.7500 E5.2041
G1 X107.7500 E11.3265
; end object id: undefined
;; --- layer 1 (1.000 @ 2) ---
G1 Z2.0000 F3600
; feature shells
G1 X107.7500 Y121.2500
G1 X126.2500 E11.3265 F300
G1 Y112.7500 E5.2041
G1 X107.7500 E11.3265
G1 Y121.2500 E5.2041
;; --- layer 2 (1.000 @ 3) ---
G1 Z3.0000 F3600
; feature shells
G1 X126.2500 E11.3265 F300
G1 Y112.7500 E5.2041
G1 X107.7500 E11.3265
G1 Y121.2500 E5.2041
;; --- layer 3 (1.000 @ 4) ---
G1 Z4.0000 F3600
; feature shells
G1 X126.2500 E11.3265 F300
G1 Y112.7500 E5.2041
G1 X107.7500 E11.3265
G1 Y121.2500 E5.2041
;; --- layer 4 (1.000 @ 5) ---
G1 Z5.0000 F3600
; feature shells
G1 X126.2500 E11.3265 F300
G1 Y112.7500 E5.2041
G1 X107.7500 E11.3265
G1 Y121.2500 E5.2041
G91 ; relative positioning
G1 Z10 F600 ; lift
G90 ; absolute positioning
M84 ; steppers off
; --- filament used: 328.21 mm ---
; --- print time: 93s ---
